!!!!SEGMENT: pl-sa--359-a-vii-119--002_anonim--mottetto-de-nativitate-kuba-michall-czy-lspicie.krn
!!!cenid: 17xx:1347
!!!COM: Anonim
!!!COM-rismID: pe30004985
!!!CDT:
!!!CNT:
!!!OPR: Mottetto de Nativitate
!!!OTL: Kuba Michał czy śpicie
!!!OMV: 002
!!!PDT: 1726
!!!AGN: Sacred; Motet; Christmas
!!!SMS-siglum: PL-SA
!!!SMS-shelfmark: 359/A VII 119
!!!SMS-shelfwork: 001-002 M
!!!SMS-variant: Violino 2do PL-SA 359/A VII 119:12-13
!!!SMS-altvar: Violino 2do PL-SA 359/A VII 119:14-15
!!!NIFC-rismSourceID: 1001069972
!!!NIFC-rismChildID: 1001069972
!!!NIFC-islandoraID: none
!!!URL-pdf-islandora:
!!!URL-scan: https://bc.bdsandomierz.pl/dlibra/publication/1663/edition/1631/content @EN{Scan in the Sandomierz Diocese Digital Library} @PL{Skany w portalu Cyfrowa Biblioteka Diecezjalna w Sandomierzu}
!!!IIIF:
!!!ONB-nifc: UWAGA: części Mottetto; 1. Gloria in excelsis, 2. Kuba Michał czy śpicie, 3. Pastuszkowie z wesołością, 4. Idźmy prędko
!!!AIN: 1 alto 1 bass 1 organ 2 soprn 1 tenor 2 tromp 1 viola 2 violn
!!!key: C
**kern	**fba	**kern	**kern	**kern	**kern	**text	**kern	**text	**kern	**text	**kern	**kern	**kern	**kern
*	*	*group3	*group3	*group3	*group2	*	*group2	*	*group2	*	*group2	*group2	*group1	*group1
*part11	*	*part10	*part9	*part8	*part7	*part7	*part6	*part6	*part5	*part5	*part4	*part3	*part2	*part1
*staff11	*	*staff10	*staff9	*staff8	*staff7	*staff7	*staff6	*staff6	*staff5	*staff5	*staff4	*staff3	*staff2	*staff1
*I"Organo	*	*I"Viola	*I"Violino 2do	*I"[Violino Primo]	*I"Baſso	*	*I"Tenore	*	*I"Alto	*	*I"Canto 2do	*I"Canto Primo	*I"Clarino 2do	*I"Clarino 1mo
*I'org	*	*I'vla	*I'vl 2	*I'vl 1	*I'B	*	*I'T	*	*I'A	*	*I'S 2	*I'S 1	*I'clno 2	*I'clno 1
*Iorgan	*	*Iviola	*Ivioln	*Ivioln	*Ibass	*	*Itenor	*	*Ialto	*	*Isoprn	*Isoprn	*Itromp	*Itromp
*ICklav	*	*ICstr	*ICstr	*ICstr	*ICvox	*	*ICvox	*	*ICvox	*	*ICvox	*ICvox	*ICbras	*ICbras
*IGcont	*	*IGacmp	*IGacmp	*IGacmp	*IGcoro	*	*IGcoro	*	*IGcoro	*	*IGcoro	*IGcoro	*IGacmp	*IGacmp
*clefF4	*	*clefF4	*clefG2	*clefG2	*clefF4	*	*clefC4	*	*clefC3	*	*clefC1	*clefC1	*clefG2	*clefG2
*k[]	*	*k[]	*k[]	*k[]	*k[]	*	*k[]	*	*k[]	*	*k[]	*k[]	*k[]	*k[]
*C:	*	*C:	*C:	*C:	*C:	*	*C:	*	*C:	*	*C:	*C:	*C:	*C:
*M4/4	*	*M4/4	*M4/4	*M4/4	*M4/4	*	*M4/4	*	*M4/4	*	*M4/4	*M4/4	*M4/4	*M4/4
*met(c|)	*	*met(c|)	*met(c|)	*met(c|)	*met(c)	*	*met(c|)	*	*met(c|)	*	*met(c|)	*met(c|)	*met(c|)	*met(c|)
=1	=1	=1	=1	=1	=1	=1	=1	=1	=1	=1	=1	=1	=1	=1
*	*	*	*	*	*	*	*all\right	*	*all\right	*	*	*	*	*
!LO:TX:b:t=Kuba B.	!	!LO:TX:b:t=Kuba	!LO:TX:b:t=Kuba	!LO:TX:t=P:problem=źródło wybrakowane, brak partii	!	!	!	!	!LO:TX:b:t=Bas	!	!LO:TX:a:t=Kuba Michał \nTacet	!LO:TX:a:t=Kuba Michał \nTacet	!LO:TX:b:t=Kuba	!LO:TX:b:t=Kuba
8r	.	8r	00r	1ryy	8r	.	00r	.	00r	.	1ryy	1ryy	4r	4r
!	!	!	!	!	!LO:TX:a:t=Solo	!	!	!	!	!	!	!	!	!
8C/	.	8C/	.	.	8c\	Ku-	.	.	.	.	.	.	.	.
!	!	!	!	!	!	!	!	!	!	!	!	!	!LO:TX:t=P:problem=mixed beam	!LO:TX:t=P:problem=mixed beam
4C/	.	4C/	.	.	8C/	-ba	.	.	.	.	.	.	8cc\L	8cc\L
.	.	.	.	.	8r	.	.	.	.	.	.	.	8c/J	8c/J
8r	.	8r	.	.	16c\	Ku-	.	.	.	.	.	.	2r	2r
.	.	.	.	.	16G\	-ba	.	.	.	.	.	.	.	.
8C/	.	8C/	.	.	16E\	Mi-	.	.	.	.	.	.	.	.
.	.	.	.	.	16C/	-chał	.	.	.	.	.	.	.	.
4C/	.	4C/	.	.	8E\	czy-	.	.	.	.	.	.	.	.
.	.	.	.	.	8G\	-li	.	.	.	.	.	.	.	.
=2	=2	=2	=2	=2	=2	=2	=2	=2	=2	=2	=2	=2	=2	=2
8r	.	8r	.	1ryy	8.E\	spi-	.	.	.	.	1ryy	1ryy	16cc\LL	16cc\LL
.	.	.	.	.	.	.	.	.	.	.	.	.	16g\JJ	16g\JJ
8C/	.	8C/	.	.	.	.	.	.	.	.	.	.	16e/LL	16e/LL
.	.	.	.	.	16C/	-cie	.	.	.	.	.	.	16c/JJ	16c/JJ
4C/	.	4C/	.	.	4r	.	.	.	.	.	.	.	8e/L	8e/L
.	.	.	.	.	.	.	.	.	.	.	.	.	8g/	8g/
8r	.	8r	.	.	4r	.	.	.	.	.	.	.	8e/	8e/
8C/	.	8C/	.	.	.	.	.	.	.	.	.	.	8c/J	8c/J
4C/	.	4C/	.	.	8C/	Ku-	.	.	.	.	.	.	4r	4r
.	.	.	.	.	8C/	-ba	.	.	.	.	.	.	.	.
=3	=3	=3	=3	=3	=3	=3	=3	=3	=3	=3	=3	=3	=3	=3
8r	.	8r	.	1ryy	4r	.	.	.	.	.	1ryy	1ryy	8c/L	8c/L
8C/	.	8C/	.	.	.	.	.	.	.	.	.	.	16c/L	16c/L
.	.	.	.	.	.	.	.	.	.	.	.	.	16c/JJ	16c/JJ
4C/	.	4C/	.	.	8E\	Mi-	.	.	.	.	.	.	4r	4r
.	.	.	.	.	8E\	-chał	.	.	.	.	.	.	.	.
8r	.	8r	.	.	4r	.	.	.	.	.	.	.	8e/L	8e/L
8C/	.	8C/	.	.	.	.	.	.	.	.	.	.	16e/L	16e/L
.	.	.	.	.	.	.	.	.	.	.	.	.	16e/JJ	16e/JJ
4G\	.	4G\	.	.	8G\	Bar-	.	.	.	.	.	.	4r	4r
.	.	.	.	.	8G\	-tek	.	.	.	.	.	.	.	.
!	!	!	!	!	!LO:LB:g=original	!	!	!	!	!	!	!	!	!
=4	=4	=4	=4	=4	=4	=4	=4	=4	=4	=4	=4	=4	=4	=4
8r	.	8r	.	1ryy	4r	.	.	.	.	.	1ryy	1ryy	8g/L	8g/L
8G\	.	8G\	.	.	.	.	.	.	.	.	.	.	16g/L	16g/L
.	.	.	.	.	.	.	.	.	.	.	.	.	16g/JJ	16g/JJ
8G\L	.	8G\L	.	.	8r	.	.	.	.	.	.	.	4r	4r
16c\L	.	16c\L	.	.	16c\	czy-	.	.	.	.	.	.	.	.
16c\JJ	.	16c\JJ	.	.	16c\	-li	.	.	.	.	.	.	.	.
!	!	!	!	!	!	!	!	!	!	!	!	!	!LO:LB:g=original	!LO:LB:g=original
8c\L	.	8c\L	.	.	8c\	spi-	.	.	.	.	.	.	8r	8r
8G\	.	8G\	.	.	8G\	-cie	.	.	.	.	.	.	16cc\LL	16cc\LL
.	.	.	.	.	.	.	.	.	.	.	.	.	16cc\JJ	16cc\JJ
8c\	.	8c\	.	.	4r	.	.	.	.	.	.	.	8cc\L	8cc\L
8G\J	.	8G\J	.	.	.	.	.	.	.	.	.	.	16g\L	16g\L
.	.	.	.	.	.	.	.	.	.	.	.	.	16g\JJ	16g\JJ
!LO:LB:g=original	!	!LO:LB:g=original	!	!	!	!	!	!	!	!	!	!	!	!
=5	=5	=5	=5	=5	=5	=5	=5	=5	=5	=5	=5	=5	=5	=5
8r	.	8r	00r	1ryy	8r	.	0r	.	0r	.	1ryy	1ryy	4r	4r
16c\LL	.	16c\LL	.	.	16c\	czy-	.	.	.	.	.	.	.	.
16c\JJ	.	16c\JJ	.	.	16c\	-li	.	.	.	.	.	.	.	.
8c\L	.	8c\L	.	.	8c\	spi-	.	.	.	.	.	.	8r	16r
.	.	.	.	.	.	.	.	.	.	.	.	.	.	16cc\LL
8G\J	.	8G\	.	.	8G\	-cie	.	.	.	.	.	.	16cc\LL	16cc\
.	.	.	.	.	.	.	.	.	.	.	.	.	16cc\JJ	16cc\JJ
8c\L	.	8c\	.	.	4r	.	.	.	.	.	.	.	8cc\L	8cc\L
8G\J	.	8G\J	.	.	.	.	.	.	.	.	.	.	16g\L	16g\L
.	.	.	.	.	.	.	.	.	.	.	.	.	16g\JJ	16g\JJ
8r	.	8r	.	.	16c\	a	.	.	.	.	.	.	4r	4r
.	.	.	.	.	16G\	za	.	.	.	.	.	.	.	.
8C/	.	8C/	.	.	16E\	wrza-	.	.	.	.	.	.	.	.
.	.	.	.	.	16C/	-wy	.	.	.	.	.	.	.	.
=6	=6	=6	=6	=6	=6	=6	=6	=6	=6	=6	=6	=6	=6	=6
4C/	.	4C/	.	1ryy	8G\	wrza-	.	.	.	.	1ryy	1ryy	16cc\LL	16cc\LL
.	.	.	.	.	.	.	.	.	.	.	.	.	16g\JJ	16g\JJ
.	.	.	.	.	8C/	-wy	.	.	.	.	.	.	16e/LL	16e/LL
.	.	.	.	.	.	.	.	.	.	.	.	.	16c/JJ	16c/JJ
8r	.	8r	.	.	8E\	nie	.	.	.	.	.	.	8g/L	8g/L
8C/	.	8C/	.	.	8G\	sły-	.	.	.	.	.	.	8e/J	8e/J
4C/	.	4C/	.	.	8E\	-szy-	.	.	.	.	.	.	8c/L	8g/L
.	.	.	.	.	8C,/	-cie	.	.	.	.	.	.	8e/	8e/
8r	.	8r	.	.	8E\	nie	.	.	.	.	.	.	8g/	8c/
8C/	.	8C/	.	.	8G\	ſły-	.	.	.	.	.	.	8e/J	8e/J
!	!	!	!	!	!LO:LB:g=original	!	!	!	!	!	!	!	!	!
=7	=7	=7	=7	=7	=7	=7	=7	=7	=7	=7	=7	=7	=7	=7
4C/	.	4C/	.	1ryy	8E\	-ſzy-	1r	.	1r	.	1ryy	1ryy	8c/L	8g/L
.	.	.	.	.	8C/	-cie	.	.	.	.	.	.	8e/J	8e/J
8r	.	8r	.	.	8GG/	nie	.	.	.	.	.	.	16c/LL	16c/LL
.	.	.	.	.	.	.	.	.	.	.	.	.	16g/	16g/
8C/	.	8C/	.	.	8GG/	sły-	.	.	.	.	.	.	16g/	16g/
.	.	.	.	.	.	.	.	.	.	.	.	.	16g/JJ	16g/JJ
4GG/	.	4GG/	.	.	8C/	-szy-	.	.	.	.	.	.	16e/LL	16e/LL
.	.	.	.	.	.	.	.	.	.	.	.	.	16c/	16c/
.	.	.	.	.	8C/	-cie	.	.	.	.	.	.	16c/	16c/
.	.	.	.	.	.	.	.	.	.	.	.	.	16c/JJ	16c/JJ
4C/	.	4C/	.	.	4r	.	.	.	.	.	.	.	8c/L	8c/L
.	.	.	.	.	.	.	.	.	.	.	.	.	8c/J	8c/J
=8	=8	=8	=8	=8	=8	=8	=8-	=8	=8	=8	=8	=8	=8-	=8-
8c\L	.	8c\L	.	1ryy	8c\	Toc	8e\	Toc	8g\	Toc	1ryy	1ryy	1r	1r
!	!	!	!	!	!LO:TX:b:t=Tutti	!	!	!	!	!	!	!	!	!
8B\	6	8B\	.	.	8B\	nie	8d\	nie	8g\	nie	.	.	.	.
8c\	.	8c\	.	.	8c\	spre-	8e\	spre-	8g\	spre-	.	.	.	.
8G\J	.	8G\J	.	.	8G\	-my	8d\	-my	8g\	-my	.	.	.	.
!LO:TX:t=P:problem=mixed beam	!	!LO:TX:t=P:problem=mixed beam	!	!	!	!	!	!	!	!	!	!	!	!
8A\L	6	8A\L	.	.	8A\	choc	8c\	choc	8f\	choc	.	.	.	.
8B\	6 5	8B\	.	.	8B\	ſły-	8d\	ſły-	8f\	ſły-	.	.	.	.
8c\	.	8c\	.	.	8c\	-sze-	8e\	-sze-	8g\	-sze-	.	.	.	.
8C/J	.	8C/J	.	.	8c\	-my	8e\	-my	8g\	-my	.	.	.	.
=9	=9	=9	=9-	=9	=9-	=9	=9-	=9	=9-	=9	=9	=9	=9	=9
!LO:TX:t=P:problem=mixed beam	!	!LO:TX:t=P:problem=mixed beam	!	!	!	!	!	!	!	!	!	!	!	!
!LO:TX:b:t=VV	!	!	!	!	!	!	!	!	!	!	!	!	!	!
8C/L	.	8C/L	8ee\L	1ryy	1r	.	1r	.	1r	.	1ryy	1ryy	00r	00r
8BB/	.	8BB/	8dd\	.	.	.	.	.	.	.	.	.	.	.
8C/	6	8C/	8ee\	.	.	.	.	.	.	.	.	.	.	.
8G\J	.	8G\J	8dd\J	.	.	.	.	.	.	.	.	.	.	.
!LO:TX:t=P:problem=mixed beam	!	!LO:TX:t=P:problem=mixed beam	!	!	!	!	!	!	!	!	!	!	!	!
8A\L	6	8A\L	8cc\L	.	.	.	.	.	.	.	.	.	.	.
8B\	6 5	8B\	8dd\	.	.	.	.	.	.	.	.	.	.	.
8c\	.	8c\	8cc\	.	.	.	.	.	.	.	.	.	.	.
8C/J	.	8C/J	8cc\J	.	.	.	.	.	.	.	.	.	.	.
!LO:LB:g=original	!	!LO:LB:g=original	!	!	!	!	!	!	!	!	!	!	!	!
=10	=10	=10	=10-	=10	=10-	=10	=10-	=10	=10-	=10	=10	=10	=10	=10
!LO:TX:b:t=Tutti	!	!	!LO:TX:a:t=1	!	!	!	!	!	!	!	!	!	!	!
8G\L	.	8G\L	1r	1ryy	8G\	na	8d\	na	8g\	na	1ryy	1ryy	.	.
8F#X\	6	8F#X\	.	.	8F#X\	cię	8d\	cie	8a\	cie	.	.	.	.
8E\	7	8E\	.	.	8E\	zga-	8e\	zga-	8g\	zga-	.	.	.	.
8B\J	6	8B\J	.	.	8B\	-rta	8d\	-rła	8g\	-rła	.	.	.	.
8c\L	6 5	8c\L	.	.	8c\	nie	8.c\	nie	8g\	nie	.	.	.	.
8d\J	#	8d\J	.	.	8d\	wrze-	.	.	8f#X\	wrze-	.	.	.	.
.	.	.	.	.	.	.	16c\	wrze-	.	.	.	.	.	.
!LO:TX:t=P:problem=mixed beam	!	!LO:TX:t=P:problem=mixed beam	!	!	!	!	!LO:LB:g=original	!	!	!	!	!	!	!
8G\L	.	8G\L	.	.	8G\	-ſzcze-	8d\	-ſzcze-	8g\	-ſzcze-	.	.	.	.
8GG/J	.	8GG/J	.	.	8G\	-my	8d\	-my	8g\	-my	.	.	.	.
!	!	!	!	!	!LO:LB:g=original	!	!	!	!LO:LB:g=original	!	!	!	!	!
=11	=11	=11	=11-	=11	=11	=11	=11-	=11	=11	=11	=11	=11	=11	=11
!LO:TX:t=P:problem=mixed beam	!	!	!	!	!	!	!	!	!	!	!	!	!	!
!LO:TX:b:t=VV	!	!	!	!	!	!	!	!	!	!	!	!	!	!
8G\L	.	8G\L	16gg\LL	1ryy	1r	.	1r	.	1r	.	1ryy	1ryy	.	.
.	.	.	16aa\	.	.	.	.	.	.	.	.	.	.	.
8F#X\	6	8F#X\	16ff#X\	.	.	.	.	.	.	.	.	.	.	.
.	.	.	16gg\JJ	.	.	.	.	.	.	.	.	.	.	.
!	!	!	!LO:LB:g=original	!	!	!	!	!	!	!	!	!	!	!
8E\	7	8E\	16ee\LL	.	.	.	.	.	.	.	.	.	.	.
.	.	.	16gg\	.	.	.	.	.	.	.	.	.	.	.
8BB/J	6	8BB\J	16ff#\	.	.	.	.	.	.	.	.	.	.	.
.	.	.	16ee\JJ	.	.	.	.	.	.	.	.	.	.	.
!LO:TX:t=P:problem=mixed beam	!	!	!	!	!	!	!	!	!	!	!	!	!	!
8C\L	6 5	8C/L	8.dd\L	.	.	.	.	.	.	.	.	.	.	.
8D\	4 #	8D/J	.	.	.	.	.	.	.	.	.	.	.	.
.	X 3	.	16cc\Jk	.	.	.	.	.	.	.	.	.	.	.
!	!	!LO:TX:t=P:problem=mixed beam	!	!	!	!	!	!	!	!	!	!	!	!
8G\	.	8G\L	8b\L	.	.	.	.	.	.	.	.	.	.	.
8GG/J	.	8GG/J	8b\J	.	.	.	.	.	.	.	.	.	.	.
=12	=12	=12	=12-	=12	=12-	=12	=12-	=12	=12	=12	=12	=12	=12	=12
!LO:TX:b:t=Tutti	!	!	!	!	!	!	!	!	!	!	!	!	!	!
8c\L	.	8c\L	1r	1ryy	8c\	na	8c\	na	8e\	na	1ryy	1ryy	.	.
8B\	6	8B\	.	.	8B\	czę	8d\	cię	8g\	cie	.	.	.	.
8A\	7	8A\	.	.	8A\	zga-	8e\	zga-	8a\	zga-	.	.	.	.
8E\J	6	8E\J	.	.	8G\	-rła	16g\LL	-rła	8g\	-rła	.	.	.	.
.	.	.	.	.	.	.	16f\JJ	.	.	.	.	.	.	.
!LO:TX:t=P:problem=mixed beam	!	!LO:TX:t=P:problem=mixed beam	!	!	!	!	!	!	!	!	!	!	!	!
8F\L	6 5	8F\L	.	.	8F\	nie	8e\	nie	8f\	nie	.	.	.	.
8G\	.	8G\	.	.	8G\	wrze-	8d\	wrze-	8d\	wrze-	.	.	.	.
8c\	.	8c\	.	.	8c\	-szcze-	8c\	-ſzcze-	8e\	-ſzcze-	.	.	.	.
8C/J	.	8C/J	.	.	8C/	-my	8c\	-my	8e\	-my	.	.	.	.
=13	=13	=13	=13-	=13	=13	=13	=13	=13	=13	=13	=13	=13	=13	=13
8E\L	6	8E\L	16ee\LL	1ryy	8E\	na	8c\	na	8g\	na	1ryy	1ryy	0r	0r
.	.	.	16ee\	.	.	.	.	.	.	.	.	.	.	.
8G\	.	8G\	16dd\	.	8G\	cię	8d\	cię	8g\	cię	.	.	.	.
.	.	.	16dd\JJ	.	.	.	.	.	.	.	.	.	.	.
8c\	.	8c\	16ee\LL	.	8c\	zga-	8e\	zga-	8e\	zga-	.	.	.	.
.	.	.	16ee\	.	.	.	.	.	.	.	.	.	.	.
8G\J	.	8G\J	16dd\	.	8G\	-rła	8d\	-rła	8g\	-rła	.	.	.	.
.	.	.	16dd\JJ	.	.	.	.	.	.	.	.	.	.	.
!LO:TX:t=P:problem=mixed beam	!	!	!	!	!	!	!	!	!	!	!	!	!	!
8E\L	6	8E\L	16ee\LL	.	8E\	nie	8c\	nie	8e\	nie	.	.	.	.
.	.	.	16ee\	.	.	.	.	.	.	.	.	.	.	.
8G\	.	8G\	16dd\	.	8G\	wrze-	8B\	wrze-	8d\	wrze-	.	.	.	.
.	.	.	16dd\JJ	.	.	.	.	.	.	.	.	.	.	.
8c\	.	8c\	16ee\LL	.	8E\	-ſzcze-	8c\	-ſzcze-	8e\	-ſzcze-	.	.	.	.
.	.	.	16ee\	.	.	.	.	.	.	.	.	.	.	.
8C/J	.	8G\J	16dd\	.	8C/	-my	8e\	-my	8e\	-my	.	.	.	.
.	.	.	16dd\JJ	.	.	.	.	.	.	.	.	.	.	.
=14	=14	=14	=14	=14	=14	=14	=14	=14	=14	=14	=14	=14	=14	=14
8E\L	6	8E\L	16ee\LL	1ryy	8E\	na	8e\	na	8g\	na	1ryy	1ryy	.	.
.	.	.	16ee\	.	.	.	.	.	.	.	.	.	.	.
8G\	.	8G\	16dd\	.	8G\	cię	8d\	cie	8g\	cię	.	.	.	.
.	.	.	16dd\JJ	.	.	.	.	.	.	.	.	.	.	.
!	!	!	!	!	!	!	!LO:LB:g=original	!	!	!	!	!	!	!
8c\	.	8c\	16ee\LL	.	8c\	zga-	8e\	zga-	8e\	zga-	.	.	.	.
.	.	.	16ee\	.	.	.	.	.	.	.	.	.	.	.
8G\J	.	8G\J	16dd\	.	8G\	-rła	8d\	-rła	8g\	-rła	.	.	.	.
.	.	.	16dd\JJ	.	.	.	.	.	.	.	.	.	.	.
!LO:LB:g=original	!	!	!	!	!LO:LB:g=original	!	!	!	!LO:LB:g=original	!	!	!	!	!
8E\L	6	8E\L	16ee\LL	.	8E\	nie	8c\	nie	8e\	nie	.	.	.	.
.	.	.	16ee\	.	.	.	.	.	.	.	.	.	.	.
8G\J	.	8G\J	16gg\	.	8G\	wrze-	8B\	wrze-	8d\	wrze-	.	.	.	.
.	.	.	16ff\JJ	.	.	.	.	.	.	.	.	.	.	.
!	!	!LO:LB:g=original	!	!	!	!	!	!	!	!	!	!	!	!
8C/L	.	8C/L	8ee\L	.	8C/	-ſzcze-	8c\	-ſzcze-	8e\	-ſzcze-	.	.	.	.
8C/J	.	8C/J	8ee\J	.	8C/	-my	8c\	-my	8e\	-my	.	.	.	.
==	==	==	==	==	==	==	==	==	==	==	==	==	==	==
*-	*-	*-	*-	*-	*-	*-	*-	*-	*-	*-	*-	*-	*-	*-
!!!system-decoration: [(g1)][(g2)][(g3)]s11
!!!ENC: Andrzej Gręziak
!!!END: 2020-11-28
!!!ENC: Marta Lawrence
!!!END: 2021-12-30
!!!YEC: Copyright 2022 Narodowy Instytut Fryderyka Chopina (https://polishscores.org)
!!!YEM: License CC-BY-4.0 (https://creativecommons.org/licenses/by/4.0)
